build/svg/cmd/sc_acceptalltrackedchanges.svg

<?xml version="1.0" encoding="UTF-8" standalone="no"?>
<svg
   xmlns:dc="http://purl.org/dc/elements/1.1/"
   xmlns:cc="http://creativecommons.org/ns#"
   xmlns:rdf="http://www.w3.org/1999/02/22-rdf-syntax-ns#"
   xmlns:svg="http://www.w3.org/2000/svg"
   xmlns="http://www.w3.org/2000/svg"
   xmlns:sodipodi="http://sodipodi.sourceforge.net/DTD/sodipodi-0.dtd"
   xmlns:inkscape="http://www.inkscape.org/namespaces/inkscape"
   viewBox="0 0 16 16"
   version="1.1"
   id="svg4"
   sodipodi:docname="sc_acceptalltrackedchanges.svg"
   inkscape:export-filename="/home/jupiter007/Libreoffice yaru theme fullcolor/build/cmd/sc_acceptalltrackedchanges.png"
   inkscape:export-xdpi="102.40008"
   inkscape:export-ydpi="102.40008"
   inkscape:version="0.92.5 (2060ec1f9f, 2020-04-08)">
  <metadata
     id="metadata10">
    <rdf:RDF>
      <cc:Work
         rdf:about="">
        <dc:format>image/svg+xml</dc:format>
        <dc:type
           rdf:resource="http://purl.org/dc/dcmitype/StillImage" />
      </cc:Work>
    </rdf:RDF>
  </metadata>
  <defs
     id="defs8" />
  <sodipodi:namedview
     pagecolor="#ffffff"
     bordercolor="#666666"
     borderopacity="1"
     objecttolerance="10"
     gridtolerance="10"
     guidetolerance="10"
     inkscape:pageopacity="0"
     inkscape:pageshadow="2"
     inkscape:window-width="1920"
     inkscape:window-height="1011"
     id="namedview6"
     showgrid="true"
     inkscape:zoom="41.7193"
     inkscape:cx="5.6864002"
     inkscape:cy="5.7505601"
     inkscape:window-x="0"
     inkscape:window-y="32"
     inkscape:window-maximized="1"
     inkscape:current-layer="svg4">
    <inkscape:grid
       type="xygrid"
       id="grid843" />
  </sodipodi:namedview>
  <path
     inkscape:connector-curvature="0"
     style="fill:#762572"
     d="M 7.1018299,8.7887881 V 11.788788 H 12.101831 V 8.7887881 Z"
     id="path4-2" />
  <path
     sodipodi:nodetypes="cccscsccccccccscscccccc"
     inkscape:connector-curvature="0"
     id="path4237-1"
     d="m 4.9941523,0.99985793 c -1.2582,0.0145 -2.178891,-0.030604 -2.931641,0.38476567 -0.3763696,0.2076599 -0.6732306,0.559387 -0.8378906,0.9980468 -0.16467,0.43867 -0.224609,0.9595875 -0.224609,1.6171875 v 1.4882811 5.512443 c 0,0.65761 0.0599,1.178577 0.224609,1.617188 0.16468,0.438611 0.461531,0.788524 0.8378906,0.996093 0.75272,0.41513 1.673541,0.371649 2.931641,0.386719 h 0.002 6.0057867 0.0039 c 1.25819,-0.0145 2.178892,0.0306 2.931641,-0.384766 0.376371,-0.20766 0.673222,-0.559386 0.837892,-0.998046 0.164538,-0.438671 0.224618,-0.959578 0.224618,-1.617188 V 5.4666549 3.9998579 c 0,-0.6576 -0.0599,-1.1785776 -0.224609,-1.6171875 C 14.6107,1.9440705 14.313849,1.5941366 13.93749,1.3865768 13.184719,0.97144673 12.263888,1.014938 11.005799,0.99985793 h -0.002 -6.0057878 z"
     style="font-style:normal;font-variant:normal;font-weight:normal;font-stretch:normal;font-size:15px;line-height:125%;font-family:Ubuntu;-inkscape-font-specification:Ubuntu;text-align:center;letter-spacing:0px;word-spacing:0px;writing-mode:lr-tb;text-anchor:middle;display:inline;opacity:0.6;fill:#000000;fill-opacity:1;stroke:none;stroke-width:0.99980211" />
  <path
     inkscape:connector-curvature="0"
     id="path1993"
     d="m 4.9830115,2.0270427 c -1.556581,0.010796 -0.1096212,-0.011752 -1.6595722,0.038775 -0.461229,0.042668 -1.016188,0.2064193 -1.15534,0.7099666 -0.218994,0.6353465 -0.108414,1.3337871 -0.145796,1.9819244 -0.0078,2.2970849 -0.02297,4.5965684 0.02152,6.8859213 0.0391,0.461929 0.202551,1.012666 0.698756,1.163666 0.632456,0.225082 1.284144,0.12274 1.935974,0.154298 1.424235,0.0068 -0.1498058,0.01102 1.2760512,0.01131 1.704531,3.5e-4 4.4086845,-0.005 6.1074875,-0.01851 0.511911,-0.01201 1.183699,0.01993 1.584745,-0.405191 0.421097,-0.539783 0.287073,-1.268021 0.322744,-1.903787 0.01187,-2.4443229 0.02769,-4.911236 -0.0219,-7.3569355 C 13.898402,2.8864401 13.77769,2.4255285 13.372543,2.2440053 12.704374,1.9499078 11.946338,2.0759864 11.246621,2.0384325 9.4922141,2.02663 6.7374505,2.0259481 4.9830115,2.0270427 Z"
     style="opacity:1;vector-effect:none;fill:#ffffff;fill-opacity:1;stroke:none;stroke-width:1;stroke-linecap:round;stroke-linejoin:bevel;stroke-miterlimit:4;stroke-dasharray:none;stroke-dashoffset:0;stroke-opacity:1"
     sodipodi:nodetypes="cccccccsccccccc" />
  <rect
     style="opacity:1;fill:#232629;fill-opacity:1;stroke:none;stroke-width:1.72963798;stroke-linecap:round;stroke-linejoin:round;stroke-miterlimit:4;stroke-dasharray:none;stroke-opacity:1"
     id="rect840"
     width="5.9832954"
     height="1"
     x="7.0000114"
     y="10" />
  <rect
     y="10.000582"
     x="3.0000117"
     height="1"
     width="3"
     id="rect844"
     style="opacity:1;fill:#c7162b;fill-opacity:1;stroke:none;stroke-width:1.2247448;stroke-linecap:round;stroke-linejoin:round;stroke-miterlimit:4;stroke-dasharray:none;stroke-opacity:1" />
  <rect
     y="7"
     x="-5.0000114"
     height="1"
     width="2"
     id="rect846"
     style="opacity:1;fill:#232629;fill-opacity:1;stroke:none;stroke-width:1;stroke-linecap:round;stroke-linejoin:round;stroke-miterlimit:4;stroke-dasharray:none;stroke-opacity:1"
     transform="scale(-1,1)" />
  <rect
     style="opacity:1;fill:#c7162b;fill-opacity:1;stroke:none;stroke-width:1.868595;stroke-linecap:round;stroke-linejoin:round;stroke-miterlimit:4;stroke-dasharray:none;stroke-opacity:1"
     id="rect848"
     width="6.9832954"
     height="1"
     x="-12.983307"
     y="7.0005817"
     transform="scale(-1,1)" />
  <rect
     style="opacity:1;fill:#232629;fill-opacity:1;stroke:none;stroke-width:1.41125751;stroke-linecap:round;stroke-linejoin:round;stroke-miterlimit:4;stroke-dasharray:none;stroke-opacity:1"
     id="rect850"
     width="3.9832954"
     height="1"
     x="9.0000114"
     y="4" />
  <rect
     y="4.0005817"
     x="3.0000117"
     height="1"
     width="5"
     id="rect852"
     style="opacity:1;fill:#c7162b;fill-opacity:1;stroke:none;stroke-width:1.58113873;stroke-linecap:round;stroke-linejoin:round;stroke-miterlimit:4;stroke-dasharray:none;stroke-opacity:1" />
  <circle
     style="opacity:1;vector-effect:none;fill:#46a926;fill-opacity:1;stroke:none;stroke-width:3.49999976;stroke-linecap:butt;stroke-linejoin:round;stroke-miterlimit:4;stroke-dasharray:none;stroke-dashoffset:0;stroke-opacity:1"
     id="path2644"
     cy="12.5"
     cx="12.5"
     r="3.5" />
  <circle
     r="3.5"
     cx="6.5"
     cy="12.5"
     id="circle845"
     style="opacity:1;vector-effect:none;fill:#46a926;fill-opacity:1;stroke:none;stroke-width:3.49999976;stroke-linecap:butt;stroke-linejoin:round;stroke-miterlimit:4;stroke-dasharray:none;stroke-dashoffset:0;stroke-opacity:1" />
  <path
     sodipodi:nodetypes="ccccccc"
     inkscape:connector-curvature="0"
     d="M 8.4967649,10.634258 5.7922959,13.33307 4.5031619,12.047331 3.6681078,12.881577 5.7923279,15 9.3318929,11.468496 Z"
     id="path847"
     style="color:#000000;font-style:normal;font-variant:normal;font-weight:normal;font-stretch:normal;font-size:medium;line-height:normal;font-family:sans-serif;font-variant-ligatures:normal;font-variant-position:normal;font-variant-caps:normal;font-variant-numeric:normal;font-variant-alternates:normal;font-feature-settings:normal;text-indent:0;text-align:start;text-decoration:none;text-decoration-line:none;text-decoration-style:solid;text-decoration-color:#000000;letter-spacing:normal;word-spacing:normal;text-transform:none;writing-mode:lr-tb;direction:ltr;text-orientation:mixed;dominant-baseline:auto;baseline-shift:baseline;text-anchor:start;white-space:normal;shape-padding:0;clip-rule:nonzero;display:inline;overflow:visible;visibility:visible;opacity:1;isolation:auto;mix-blend-mode:normal;color-interpolation:sRGB;color-interpolation-filters:linearRGB;solid-color:#000000;solid-opacity:1;vector-effect:none;fill:#ffffff;fill-opacity:1;fill-rule:nonzero;stroke:none;stroke-width:1.50000024;stroke-linecap:butt;stroke-linejoin:miter;stroke-miterlimit:4;stroke-dasharray:none;stroke-dashoffset:0;stroke-opacity:1;marker:none;color-rendering:auto;image-rendering:auto;shape-rendering:auto;text-rendering:auto;enable-background:accumulate" />
  <path
     style="color:#000000;font-style:normal;font-variant:normal;font-weight:normal;font-stretch:normal;font-size:medium;line-height:normal;font-family:sans-serif;font-variant-ligatures:normal;font-variant-position:normal;font-variant-caps:normal;font-variant-numeric:normal;font-variant-alternates:normal;font-feature-settings:normal;text-indent:0;text-align:start;text-decoration:none;text-decoration-line:none;text-decoration-style:solid;text-decoration-color:#000000;letter-spacing:normal;word-spacing:normal;text-transform:none;writing-mode:lr-tb;direction:ltr;text-orientation:mixed;dominant-baseline:auto;baseline-shift:baseline;text-anchor:start;white-space:normal;shape-padding:0;clip-rule:nonzero;display:inline;overflow:visible;visibility:visible;opacity:1;isolation:auto;mix-blend-mode:normal;color-interpolation:sRGB;color-interpolation-filters:linearRGB;solid-color:#000000;solid-opacity:1;vector-effect:none;fill:#ffffff;fill-opacity:1;fill-rule:nonzero;stroke:none;stroke-width:1.50000024;stroke-linecap:butt;stroke-linejoin:miter;stroke-miterlimit:4;stroke-dasharray:none;stroke-dashoffset:0;stroke-opacity:1;marker:none;color-rendering:auto;image-rendering:auto;shape-rendering:auto;text-rendering:auto;enable-background:accumulate"
     id="path4135-2-8"
     d="M 14.496765,10.634258 11.792296,13.33307 10.503162,12.047331 9.6681079,12.881577 11.792328,15 15.331893,11.468496 Z"
     inkscape:connector-curvature="0"
     sodipodi:nodetypes="ccccccc" />
</svg>

<svg xmlns="http://www.w3.org/2000/svg" viewBox="0 0 16 16"><path d="M7.102 8.789v3h5v-3z" fill="#762572"/><path d="M4.994 1c-1.258.014-2.179-.03-2.931.385a1.88 1.88 0 00-.838.998C1.06 2.82 1 3.343 1 4V11c0 .657.06 1.178.225 1.617.164.438.461.788.838.996.752.415 1.673.372 2.931.387h6.012c1.258-.015 2.179.03 2.931-.385a1.88 1.88 0 00.838-.998c.165-.439.225-.96.225-1.617V4c0-.658-.06-1.179-.225-1.617a1.875 1.875 0 00-.838-.996C13.185.97 12.264 1.015 11.006 1H4.998z" style="line-height:125%;-inkscape-font-specification:Ubuntu;text-align:center" font-weight="400" font-size="15" font-family="Ubuntu" letter-spacing="0" word-spacing="0" text-anchor="middle" opacity=".6"/><path d="M4.983 2.027c-1.557.01-.11-.012-1.66.039-.46.042-1.016.206-1.155.71-.219.635-.108 1.334-.146 1.982-.007 2.297-.023 4.596.022 6.886.039.462.202 1.012.699 1.163.632.225 1.284.123 1.936.155 1.424.006-.15.01 1.276.01 1.704.001 4.408-.004 6.107-.018.512-.012 1.184.02 1.585-.405.42-.54.287-1.268.323-1.904.011-2.444.027-4.91-.022-7.357-.05-.402-.17-.862-.575-1.044-.669-.294-1.427-.168-2.126-.206-1.755-.011-4.51-.012-6.264-.011z" fill="#fff"/><path fill="#232629" d="M7 10h5.983v1H7z"/><path fill="#c7162b" d="M3 10.001h3v1H3z"/><path fill="#232629" d="M5 7H3v1h2z"/><path fill="#c7162b" d="M12.983 7.001H6v1h6.983z"/><path fill="#232629" d="M9 4h3.983v1H9z"/><path fill="#c7162b" d="M3 4.001h5v1H3z"/><circle cy="12.5" cx="12.5" r="3.5" fill="#46a926"/><circle r="3.5" cx="6.5" cy="12.5" fill="#46a926"/><path d="M8.497 10.634l-2.705 2.7-1.289-1.287-.835.835L5.792 15l3.54-3.532zM14.497 10.634l-2.705 2.7-1.289-1.287-.835.835L11.792 15l3.54-3.532z" style="line-height:normal;font-variant-ligatures:normal;font-variant-position:normal;font-variant-caps:normal;font-variant-numeric:normal;font-variant-alternates:normal;font-feature-settings:normal;text-indent:0;text-align:start;text-decoration-line:none;text-decoration-style:solid;text-decoration-color:#000;text-transform:none;text-orientation:mixed;white-space:normal;shape-padding:0;isolation:auto;mix-blend-mode:normal;solid-color:#000;solid-opacity:1;marker:none" color="#000" font-weight="400" font-family="sans-serif" overflow="visible" fill="#fff"/></svg>
